T: Lucy Farr's
M: 4/4
L: 1/8
K: Dmaj
|: A4 A4 | ABcA F2 E2 | c4 c4 | cdec B3 B |cdec B2 A2 | ABcA F2 E2 | EFAB ceec | B2 A2 A4 :||: cdec B2 A2 | ABcA F2 E2 | EFAB ceec | c2 B2 B3 B |cdec B2 A2 | ABcA F2 E2 | EFAB ceec | B2 A2 A4 :|G2 G2 G2 G2 | GABG E2 D2 | B2 B2 B2 B2 | BcdB A2 G2 |||: BcdB G2 G2 | GABG E2 D2 | DEGA BddB |[1 B2 A2 A4 :|[2 A2 G2 G2 |]|: G2 G2 G2 G2 | F>GA>F G2 D2 | B2 B2 B2 B2 | A>Bc>A B2 G2 |e2 e2 d3 B | c2 c2 B3 G | F2 A2 A3 G | F>DE>F G>AB>d |e2 e2 d3 B | c2 c2 B3 G | E2 A2 A3 G | F>DE>F G2 D2 :|G2 G2 G2 G2 | F>GA>F G2 D2 | B2 B2 B2 B2 |A>Bc>A B2 G2 |B>cd>B G4 | A>Bc>A E4 | D>EF>G A>Bc>d | e2 d2 B4 |B>cd>B G4 | A>Bc>A E4 | D>EF>G A>B (3cBA | B2 G2 G2 :|d2 d2 d2 d2 | c>de>f d2 A2 | f2 f2 f2 f2 | e>fg>f e2 e2 |f>ga>f d2 d2 | e>fg>f e2 e2 | e>fe>d c>AB>c | d>ef>g a2 a>f |g>ab>g e2 e2 | f>ga>f d2 d2 | e>fe>d c>AB>c | d2 f2 d2 :|G2. G2. G2. G2. | G>AB>G (3EFE D2 | B2. B2. B2. B2. | B>cd>B A2 G2 |B>c (3dcB A2 G2 | G>A (3BAG E2 D2 | D>EG>A B>d (3ddd | B2 A2 A4 |B>cd>B G2 G2 | G>AB>G E2 E2 | D>EG>A B<dd>B | A2 G2 G2 :|(3GGG G2 (3GGG G2 | G>AB>G E2 D2 | (3BBB (3BBB (3BBB (3BBB | (3Bcd d>B A4 |B>cd>B G2 G2 | G>AB>G E2 D2 | D>EG>A B2 d>B | B2 A2 A4 |B2 d>B G4 | G2 B>G E2 D2 | D>EG>A (3BcB d>B | A2 G2 G2 :||: G2 G2 G2 G2 | F>GA>F G2 D2 | B2 B2 B2 B2 | A>Bc>A B2 G2 |e2 e2 d2 B2 | c2 c2 B2 G2 | F2 A2 A3 G | F>DE>F G>AB>d |e2 e2 d3 B | c2 c2 B3 G | E2 A2 A3 G | F>DE>F G2 D2 :|G2 G2 G2 G2 | F>GA>F G2 D2 | B2 (3BBB B2 (3BBB | A>Bc>A B2 G2 |B>cd>B G4 | A>Bc>A E4 | D>EF>G A2 (3Bcd | e2 d2 B4 |B>cd>B G2 G2 | A>Bc>A E2 E2 | D>EF>G A>B (3cBA | B2 G2 G2 :||: A4 A2 (3AAA | ABcA F2 E2 | c4 c2 (3ccc | cdec B4 |cdec B2 A2 | ABcA F2 E2 | EFAB c>e- e2 | (3cdc B^A B3 B |cdec A4 | ABcA F4 | (3EEE AB c2 ec | (3BcB A2 A4 :|d2. d2 d2. d2 | c>de>f d2. A2. | f2. f2 f2. f2 | e>fg>f e2. e2 |f>ga>f d2 d2 | e>fg>f e2 e2 | e>fe>d c>AB>c | d>ef>g a2. a>f |g>ab>g e2 e2 | f>g (3agf d2 d2 | e>fe>d c>ba>g | f2 d2 d2. :|D[B,G] [B,G][B,G] | [A,/F/][B,/G/][C/A/][A,/F/] [B,G][DB] | [Fd]>[Ec] [DB][CA] | [B,2G2] z2 |||: D[B,G] [B.G][B,G] | [A,/F/][B,/G/][C/A/][A,/F/] [B,2G2] | D[GB] [GB][GB] | [F/A/][G/B/][A/c/][F/A/] [G2B2] |[Bd][Bd] [c2e2] | [Ac][Ac] [B2d2] | [GB][GB] [Ac][Ac] | [FA][FA] [G2B2] |[Bd][Bd] [c2e2] | [Ac][Ac] [B2d2] | [GB][GB] [Ac][Ac] | [CA][CA] [B,2G2] :|GG GG | F/G/A/F/ GD | BB BB | A/B/c/A/ BG |ee d>B | cc B>G | EA A>G | F/D/E/F/ G/A/B/d/ |ee d>B | cc B>G | EA A>G | F/D/E/F/ G :|GG GG | F/G/A/F/ GD | BB BB | A/B/c/A/ BG |||: ee d>B | cc B>B | AA A>G | F/D/E/F/ G/A/ (3B/c/d/ :|c2 c2 c2 c2 | B>cd>B c3 d | e2 e2 e2 e2 | d>ef>d e4 |||: e>fg>e d4 | e>fg>e c4 | d>ef>d B>GA>B |[1 c>de>f g4 :|[2 c2 c2 c4 |]d2 d2 d2 d2 | c>de>c A2 A2 | e2 e2 e2 e2 | d>ef>d A3 f |g>fg>e c2 g2 | f>=f^f>d A2 f2 | e>de>c A>ce>f | e2 d2 d3 |]d2 d2 d2 d2 | c>de>c A2 A2 | e2 e2 e2 e2 | d>ef>d A3 ||g>fg>e c2 g2 | f>^ef>d A2 f2 | e>de>c A>ce>f | e2 d2 d3 :|
